www/assets/icons/work_off.svg

<svg width="24" height="24" viewBox="0 0 24 24" xmlns="http://www.w3.org/2000/svg" fill='currentColor'><path d="M22.505 21.2451L2.755 1.49512L1.495 2.75512L4.195 5.45512H3.555C2.445 5.45512 1.565 6.34512 1.565 7.45512L1.555 18.4551C1.555 19.5651 2.445 20.4551 3.555 20.4551H19.195L21.245 22.5051L22.505 21.2451ZM21.505 7.45512C21.555 6.34512 20.665 5.45512 19.555 5.50512H15.555V3.45512C15.555 2.34512 14.665 1.45512 13.555 1.50512H9.555C8.445 1.45512 7.555 2.34512 7.555 3.45512V3.77512L21.505 17.7751V7.45512ZM13.555 5.50512H9.505V3.45512H13.555V5.50512Z"/></svg>

<svg xmlns="http://www.w3.org/2000/svg" width="24" height="24" viewBox="0 0 24 24" fill='currentColor'><path d="M22.505 21.245 2.755 1.495l-1.26 1.26 2.7 2.7h-.64c-1.11 0-1.99.89-1.99 2l-.01 11c0 1.11.89 2 2 2h15.64l2.05 2.05zm-1-13.79c.05-1.11-.84-2-1.95-1.95h-4v-2.05c0-1.11-.89-2-2-1.95h-4c-1.11-.05-2 .84-2 1.95v.32l13.95 14zm-7.95-1.95h-4.05v-2.05h4.05z"/></svg>
